X: 1
T:The Bog Down in the Valley  "bogdown.bmw"
M:3/4
L:1/8
Q:80
C:Arr. G. De M.H. Orpen Palmer
S:March
K:HP
|: A|
{gfg}f3/2g/2{fg}fe|
{Gdc}dB{gBd}B{g}d/2B/2|
{gAd}Ad{gde}d/2c/2d/2e/2|  !
{gfg}fe{gef}eA|
{gfg}f3/2g/2{fg}fe|
{Gdc}dB{gBd}B{g}d/2B/2|  !
{gAd}Af{ag}af|
{gef}ed{gdc}d:| |:
A|  !
{gfg}f3/2g/2{fg}fe|
{Gdc}dB{gBd}B{g}c/2d/2|
{gef}e3/2f/2{gef}ed|  !
{gcd}cA{gAd}Ad/2e/2|
{gfg}f3/2g/2{fg}fe|
{Gdc}dB{gBd}B{g}d/2B/2|  !
{gAd}Af{ag}af|
{gef}ed{gdc}d:|
